static/images/logos/peakscale_dark.svg

<?xml version="1.0" encoding="UTF-8" standalone="no"?>
<!DOCTYPE svg PUBLIC "-//W3C//DTD SVG 1.1//EN" "http://www.w3.org/Graphics/SVG/1.1/DTD/svg11.dtd">
<svg width="100%" height="100%" viewBox="0 0 345 149" version="1.1" xmlns="http://www.w3.org/2000/svg" xmlns:xlink="http://www.w3.org/1999/xlink" xml:space="preserve" xmlns:serif="http://www.serif.com/" style="fill-rule:evenodd;clip-rule:evenodd;stroke-linejoin:round;stroke-miterlimit:2;">
    <g transform="matrix(1,0,0,1,-223.773,-297.367)">
        <g transform="matrix(1,0,0,1,233.386,423.099)">
            <path d="M0,14.177L0,8.779L12.817,8.779C14.777,8.779 16.307,8.223 17.404,7.11C18.501,5.998 19.05,4.535 19.05,2.721C19.05,0.877 18.501,-0.586 17.404,-1.669C16.307,-2.751 14.777,-3.293 12.817,-3.293L-4.083,-3.293L-4.083,23.044L-9.613,23.044L-9.613,-8.867L12.817,-8.867C14.661,-8.867 16.307,-8.596 17.755,-8.055C19.203,-7.513 20.425,-6.753 21.42,-5.772C22.415,-4.792 23.176,-3.599 23.703,-2.195C24.229,-0.791 24.493,0.789 24.493,2.545C24.493,4.272 24.229,5.845 23.703,7.264C23.176,8.684 22.415,9.905 21.42,10.929C20.425,11.953 19.203,12.75 17.755,13.322C16.307,13.892 14.661,14.177 12.817,14.177L0,14.177Z" style="fill:white;fill-rule:nonzero;"/>
        </g>
        <g transform="matrix(1,0,0,1,0,60.376)">
            <path d="M271.442,367.2L289.131,367.2L289.131,371.896L271.442,371.896L271.442,367.2ZM261.829,385.768L261.829,353.856L290.316,353.856L290.316,359.431L267.36,359.431L267.36,380.192L290.36,380.192L290.36,385.768L261.829,385.768Z" style="fill:white;fill-rule:nonzero;"/>
        </g>
        <g transform="matrix(1,0,0,1,328.415,413.793)">
            <path d="M0,32.351L-4.785,24.318L-19.884,24.318L-17.25,19.796L-7.462,19.796L-14.573,7.858L-29.058,32.351L-35.422,32.351L-17.075,1.8C-16.753,1.245 -16.372,0.806 -15.934,0.483C-15.495,0.162 -14.968,0 -14.354,0C-13.739,0 -13.219,0.162 -12.795,0.483C-12.371,0.806 -11.998,1.245 -11.675,1.8L6.716,32.351L0,32.351Z" style="fill:white;fill-rule:nonzero;"/>
        </g>
        <g transform="matrix(1,0,0,1,364.848,414.233)">
            <path d="M0,31.911L-17.865,17.864C-18.363,17.484 -18.677,17.111 -18.809,16.745C-18.94,16.38 -19.006,15.976 -19.006,15.538C-19.006,15.041 -18.918,14.601 -18.743,14.222C-18.567,13.842 -18.187,13.431 -17.602,12.992L-0.702,0L7.857,0L-13.037,15.582L8.515,31.911L0,31.911ZM-26.292,0L-20.718,0L-20.718,31.911L-26.292,31.911L-26.292,0Z" style="fill:white;fill-rule:nonzero;"/>
        </g>
        <g transform="matrix(1,0,0,1,389.867,414.233)">
            <path d="M0,31.911L0,26.336L23.922,26.336C25.415,26.336 26.563,25.956 27.367,25.195C28.173,24.434 28.576,23.425 28.576,22.166C28.576,20.791 28.173,19.76 27.367,19.071C26.563,18.385 25.415,18.04 23.922,18.04L9.262,18.04C7.769,18.04 6.415,17.813 5.202,17.36C3.987,16.906 2.963,16.277 2.129,15.473C1.295,14.668 0.651,13.71 0.197,12.598C-0.257,11.485 -0.482,10.271 -0.482,8.954C-0.482,7.667 -0.271,6.474 0.154,5.377C0.578,4.279 1.207,3.336 2.042,2.545C2.875,1.756 3.907,1.135 5.135,0.68C6.364,0.226 7.769,0 9.35,0L32.263,0L32.263,5.574L9.35,5.574C8.061,5.574 7.067,5.918 6.364,6.605C5.663,7.294 5.311,8.252 5.311,9.48C5.311,10.71 5.668,11.661 6.386,12.334C7.104,13.007 8.078,13.344 9.307,13.344L23.922,13.344C27.171,13.344 29.636,14.104 31.318,15.626C33.001,17.147 33.842,19.46 33.842,22.561C33.842,23.908 33.638,25.151 33.229,26.292C32.817,27.433 32.204,28.421 31.384,29.255C30.565,30.089 29.533,30.74 28.29,31.208C27.047,31.677 25.591,31.911 23.922,31.911L0,31.911Z" style="fill:rgb(5,128,196);fill-rule:nonzero;"/>
        </g>
        <g transform="matrix(1,0,0,1,443.066,414.233)">
            <path d="M0,31.911C-2.224,31.911 -4.279,31.493 -6.166,30.66C-8.054,29.826 -9.694,28.684 -11.084,27.236C-12.473,25.788 -13.556,24.068 -14.331,22.078C-15.107,20.089 -15.494,17.938 -15.494,15.626C-15.494,13.285 -15.107,11.148 -14.331,9.218C-13.556,7.286 -12.473,5.64 -11.084,4.279C-9.694,2.919 -8.054,1.865 -6.166,1.119C-4.279,0.372 -2.224,0 0,0L17.294,0L17.294,5.574L0,5.574C-1.434,5.574 -2.759,5.83 -3.973,6.342C-5.187,6.854 -6.233,7.564 -7.11,8.471C-7.988,9.379 -8.677,10.462 -9.174,11.72C-9.672,12.978 -9.92,14.368 -9.92,15.89C-9.92,17.382 -9.672,18.771 -9.174,20.059C-8.677,21.348 -7.988,22.451 -7.11,23.373C-6.233,24.295 -5.187,25.019 -3.973,25.546C-2.759,26.073 -1.434,26.336 0,26.336L17.294,26.336L17.294,31.911L0,31.911Z" style="fill:rgb(5,128,196);fill-rule:nonzero;"/>
        </g>
        <g transform="matrix(1,0,0,1,498.153,413.793)">
            <path d="M0,32.351L-4.784,24.318L-19.884,24.318L-17.25,19.796L-7.462,19.796L-14.573,7.858L-29.058,32.351L-35.423,32.351L-17.074,1.8C-16.753,1.245 -16.373,0.806 -15.934,0.483C-15.495,0.162 -14.968,0 -14.354,0C-13.739,0 -13.22,0.162 -12.795,0.483C-12.371,0.806 -11.998,1.245 -11.676,1.8L6.716,32.351L0,32.351Z" style="fill:rgb(5,128,196);fill-rule:nonzero;"/>
        </g>
        <g transform="matrix(1,0,0,1,508.293,414.233)">
            <path d="M0,31.911L0,0L5.574,0L5.574,26.336L27.038,26.336L27.038,31.911L0,31.911Z" style="fill:rgb(5,128,196);fill-rule:nonzero;"/>
        </g>
        <g transform="matrix(1,0,0,1,0,60.376)">
            <path d="M548.938,367.2L566.627,367.2L566.627,371.896L548.938,371.896L548.938,367.2ZM539.326,385.768L539.326,353.856L567.813,353.856L567.813,359.431L544.856,359.431L544.856,380.192L567.857,380.192L567.857,385.768L539.326,385.768Z" style="fill:rgb(5,128,196);fill-rule:nonzero;"/>
        </g>
        <g transform="matrix(1,0,0,1,432.581,393.761)">
            <path d="M0,-56.343L-32.609,-23.432C-34.296,-21.729 -37.057,-21.76 -38.705,-23.501L-54.001,-39.652C-55.629,-41.37 -58.349,-41.425 -60.044,-39.772L-65.624,-34.334C-67.317,-32.683 -67.335,-29.966 -65.663,-28.294L-38.647,-1.278C-37.008,0.361 -34.356,0.382 -32.692,-1.232L0.187,-33.105C1.848,-34.715 4.492,-34.698 6.132,-33.067L39.94,0.549C40.667,1.271 41.649,1.677 42.674,1.677L54.939,1.677C58.397,1.677 60.125,-2.509 57.674,-4.948L6.008,-56.364C4.344,-58.02 1.652,-58.01 0,-56.343" style="fill:rgb(5,128,196);fill-rule:nonzero;"/>
        </g>
        <g transform="matrix(1,0,0,1,399.487,370.717)">
            <path d="M0,-49.043L14.776,-34.339C16.42,-32.704 19.07,-32.69 20.73,-34.307L26.422,-39.849C28.119,-41.502 28.134,-44.226 26.454,-45.897L0.113,-72.114C-1.532,-73.751 -4.188,-73.763 -5.848,-72.14L-98.088,18.072C-100.572,20.501 -98.852,24.72 -95.377,24.72L-83.015,24.72C-82.002,24.72 -81.029,24.324 -80.305,23.615L-5.96,-49.069C-4.301,-50.692 -1.646,-50.68 0,-49.043" style="fill:white;fill-rule:nonzero;"/>
        </g>
    </g>
</svg>

<svg xmlns="http://www.w3.org/2000/svg" xml:space="preserve" style="fill-rule:evenodd;clip-rule:evenodd;stroke-linejoin:round;stroke-miterlimit:2" viewBox="0 0 345 149"><path d="M0 14.2V8.8h12.8q3 0 4.6-1.7a6 6 0 0 0 1.7-4.4q0-2.7-1.7-4.4a6 6 0 0 0-4.6-1.6H-4V23h-5.5V-8.9h22.4q2.8 0 5 .8 2.1.8 3.6 2.3t2.3 3.6.8 4.7-.8 4.8-2.3 3.6-3.6 2.4-5 .9z" style="fill:#fff;fill-rule:nonzero" transform="translate(9.6 125.7)"/><path d="M271.4 367.2h17.7v4.7h-17.7zm-9.6 18.6v-32h28.5v5.6h-23v20.8h23v5.6z" style="fill:#fff;fill-rule:nonzero" transform="translate(-223.8 -237)"/><path d="m0 32.4-4.8-8h-15l2.6-4.6h9.7l-7-12-14.6 24.6h-6.3l18.3-30.6q.4-.9 1.2-1.3t1.5-.5q1 0 1.6.5t1.1 1.3L6.7 32.4z" style="fill:#fff;fill-rule:nonzero" transform="translate(104.6 116.4)"/><path d="m0 32-17.9-14.1q-.7-.6-1-1.2a4 4 0 0 1 .2-2.5q.2-.6 1.1-1.2L-.7 0h8.6l-21 15.6L8.6 31.9zM-26.3 0h5.6v32h-5.6z" style="fill:#fff;fill-rule:nonzero" transform="translate(141 116.9)"/><path d="M0 32v-5.7h24q2.1 0 3.4-1.1a4 4 0 0 0 1.2-3q0-2-1.2-3.1-1.2-1-3.5-1H9.3q-2.3 0-4.1-.7t-3-2a8 8 0 0 1-2-2.8A10 10 0 0 1-.5 9q0-2 .7-3.6T2 2.5A9 9 0 0 1 5.1.7q2-.7 4.3-.7h22.9v5.6h-23q-1.8 0-3 1-1 1-1 2.9t1 2.8 3 1H24q4.9 0 7.4 2.3t2.5 7a11 11 0 0 1-.6 3.7 8 8 0 0 1-5 5q-1.8.6-4.3.6z" style="fill:#0580c4;fill-rule:nonzero" transform="translate(166 116.9)"/><path d="M0 32a15 15 0 0 1-14.3-10q-1.2-2.9-1.2-6.4t1.2-6.4a14 14 0 0 1 8.1-8Q-3.2 0 0 0h17.3v5.6H0q-2.1 0-4 .7a9 9 0 0 0-5.2 5.4q-.7 2-.7 4.2t.7 4.2A9.5 9.5 0 0 0 0 26.4h17.3v5.5z" style="fill:#0580c4;fill-rule:nonzero" transform="translate(219.3 116.9)"/><path d="m0 32.4-4.8-8h-15l2.6-4.6h9.7l-7-12-14.6 24.6h-6.3l18.3-30.6q.4-.9 1.2-1.3t1.5-.5q1 0 1.6.5t1.1 1.3L6.7 32.4z" style="fill:#0580c4;fill-rule:nonzero" transform="translate(274.4 116.4)"/><path d="M0 32V0h5.6v26.3H27V32z" style="fill:#0580c4;fill-rule:nonzero" transform="translate(284.5 116.9)"/><path d="M549 367.2h17.6v4.7H549zm-9.7 18.6v-32h28.5v5.6h-23v20.8h23v5.6z" style="fill:#0580c4;fill-rule:nonzero" transform="translate(-223.8 -237)"/><path d="m0-56.3-32.6 32.9a4 4 0 0 1-6.1-.1L-54-39.7a4 4 0 0 0-6 0l-5.6 5.4a4 4 0 0 0 0 6l27 27a4 4 0 0 0 6 0L.1-33a4 4 0 0 1 6 0L39.8.5q1.2 1.2 2.8 1.2h12.2c3.5 0 5.2-4.2 2.8-6.6L6-56.4a4 4 0 0 0-6 0" style="fill:#0580c4;fill-rule:nonzero" transform="translate(208.8 96.4)"/><path d="m0-49 14.8 14.7a4 4 0 0 0 6 0l5.6-5.5a4 4 0 0 0 0-6.1L.2-72.1a4 4 0 0 0-6 0L-98 18a3.9 3.9 0 0 0 2.7 6.6H-83q1.6 0 2.7-1L-6-49.2a4 4 0 0 1 6 0" style="fill:#fff;fill-rule:nonzero" transform="translate(175.7 73.3)"/></svg>
